public/new/vuesaxboldflash1.svg

<svg width="25" height="24" viewBox="0 0 25 24" fill="none" xmlns="http://www.w3.org/2000/svg">
<path d="M18.5765 10.7199H15.4865V3.5199C15.4865 1.8399 14.5765 1.4999 13.4665 2.7599L12.6665 3.6699L5.89652 11.3699C4.96652 12.4199 5.35652 13.2799 6.75652 13.2799H9.84652V20.4799C9.84652 22.1599 10.7565 22.4999 11.8665 21.2399L12.6665 20.3299L19.4365 12.6299C20.3665 11.5799 19.9765 10.7199 18.5765 10.7199Z" fill="#434665"/>
</svg>

<svg fill="none" height="24" viewBox="0 0 25 24" width="25" xmlns="http://www.w3.org/2000/svg"><path d="m18.5765 10.7199h-3.09v-7.2c0-1.68-.91-2.02-2.02-.76l-.8.91-6.76998 7.7c-.93 1.05-.54 1.91.86 1.91h3.09v7.2c0 1.68.90998 2.02 2.01998.76l.8-.91 6.77-7.7c.93-1.05.54-1.91-.86-1.91z" fill="#434665"/></svg>
